X: 39298
T: Take No Prisoners
R: slip jig
M: 9/8
K: Aminor
M:7/8
|:ABc dAeA|g2f e2cd|ABc dAeA|g2f e2ed|
edc ecGA|g2f e2d2|fed (3efg de|cdB (3ABA AG:|
|:AGA aAgA|fed (3efe cd|fed (3efg de|gag e2ed|
(3BAGA a2g2|fed e2cd|fed (3efg de|cdB A2AG:|
|:Acd (3BcB G2|EFG AGAG|BEE d2c2|BAG A2FG|
Acd (3BcB G2|EFG AGAG|BEE d2c2|BAG A2AG:|
|:EGA cGB2|FAG EFDC|EGA c2B2|FAG EFE2|
EGA cGB2|FAG EFDC|1 A,B,C (3DEF GA|EFG D4:|2 A,B,C (3DEF GA|Bce d4||

